X:381
T: SPINN MAEGDLEIN SPINN
N: E1568
O: Europa, Mitteleuropa, Deutschland
R: Staende -, Bauern - Lied, Spinnen; Moral - Lied
M: 2/4
L: 1/8
K: Bb
 | B2FF | B3
d | cFFe | d3z
fcdB | cFFz
fcdB | cFFz
B2cf | d2cf | B2z2

